X:5894
T:Gan Ainm
R:Barndance
S:
H:
N:
D:Milltown Malbay Concertina Recital, player unknown
Z:Adrian Scahill
M:4/4
L:1/8
K:G
g3e|dGBd GABc|d2c2 A3B|(3cdc A2 e3g|(3ege d2B3c|\
dGBd GABc|d2c2 AGAB|(3cdc A2 (3ege d2|G4 G4:||\
b3d' bagb|(3ac'a ab agef|(3gag ge dABd|(3ege AG A3a|\
b3d' bagb|(3ac'a ab agef|(3gag ge dABd|(3gag fa g3a:||\
